X: 2
T: Saut du lapin
M: C|
L: 1/8
R: reel
K: G
z2 |\
"G"BcBA GFGB | "G/B"d2 "A#dim"BG "Am"[AD]z2A |\
"Am"ABcB ABcd | "D"e2 f2  "A#dim"~e2 d2 ||\
"G"BcBA GFGB |
"G/B"d2 "A#dim"BG "Am"[AD]z2A |\
"Am"ABcB ABcd | "D"eAfA "G"[g2B2] :: zg |\
"G"gdBG "G/F#"d2ef | "G/E"gdBG "G/D"d3D |
"D"FdDd FdDd | FdDd Bdef ||\
"G"gdBG "G/F#"d2ef | "G/E"gdBG "G/D"d3D |\
"D"FdDd FdDd | eAfA "G"[g2B2] :|
% text 05/22/10


